front/public/logos/logo_pe.svg

<svg width="65" height="52" viewBox="0 0 65 52" fill="none" xmlns="http://www.w3.org/2000/svg">
<g clip-path="url(#clip0_5060_2369)">
<path d="M36.8373 6.55281C35.4785 7.08431 34.347 7.84238 33.4259 8.83043C32.503 9.82104 31.798 11.0084 31.3145 12.4036C30.8283 13.8005 30.584 15.3183 30.584 16.964C30.5865 20.4656 31.5707 23.1844 33.5246 25.1946C35.4768 27.1979 38.202 28.2107 41.7872 28.2133C43.3154 28.2141 44.6623 28.0165 45.8278 27.6323C47.9596 26.8811 50.3588 24.7542 50.7674 22.7483C51.0339 21.4366 50.2311 21.1521 49.7977 21.0925C49.7143 21.084 49.6292 21.078 49.5389 21.078C49.0451 21.078 48.6535 21.2373 48.404 21.4647C48.1044 21.7398 47.2325 22.5584 46.7839 22.951C46.3275 23.3497 45.8303 23.7227 45.2914 24.0711C44.7397 24.4271 44.1651 24.6912 43.5717 24.8598C42.9765 25.0293 42.3252 25.1111 41.6212 25.1111C40.5561 25.112 39.566 24.8454 38.678 24.3156C37.7815 23.7841 37.0646 22.9885 36.5376 21.9579C36.0455 21.0039 35.7816 19.9153 35.7314 18.7101C35.7178 18.3072 36.0242 18.067 36.3801 18.067H47.1483C48.6007 18.0679 49.7015 17.8558 50.4473 17.4699C51.1105 17.1267 51.4877 16.3669 51.4937 14.9879C51.4937 13.5058 51.1156 12.0527 50.3486 10.6106C49.5874 9.18392 48.4492 8.02211 46.9082 7.11242C45.38 6.21125 43.5427 5.75555 41.3717 5.7547C39.703 5.7547 38.1944 6.02301 36.8373 6.55281ZM45.0096 10.5927C45.9495 11.5927 46.4782 13.0492 46.6451 14.9197C46.6681 15.2323 46.3386 15.5057 46.0023 15.5057H36.3997C36.0506 15.5032 35.7024 15.2221 35.7569 14.878C35.9783 13.0509 36.5325 11.6157 37.4605 10.6157C38.4251 9.57147 39.6962 9.03997 41.1853 9.04338C42.7365 9.03997 44.0416 9.55955 45.0096 10.5927Z" fill="url(#paint0_radial_5060_2369)"/>
<path d="M15.5225 16.9861C15.5225 26.3683 23.1226 33.972 32.5005 33.972C41.8775 33.972 49.4785 26.3683 49.4785 16.9861C49.4785 7.60388 41.8775 -0.00069809 32.5005 -0.00069809C23.1226 -0.00069809 15.5225 7.60388 15.5225 16.9861Z" fill="url(#paint1_linear_5060_2369)"/>
<path d="M16.7858 15.3882C16.5346 17.8634 16.8709 20.2663 17.6823 22.4553C20.6876 15.4759 28.2469 15.3115 34.0354 17.3515C40.9936 18.7859 48.9386 18.458 47.8046 13.2699C46.5063 7.27001 41.1784 1.98395 34.0967 1.2642C33.5561 1.20884 33.0197 1.18158 32.4876 1.18158C24.4898 1.18158 17.6107 7.25979 16.7858 15.3882Z" fill="url(#paint2_linear_5060_2369)"/>
<path d="M33.425 8.83171C32.503 9.82104 31.798 11.0084 31.3132 12.4044C30.8283 13.8005 30.584 15.3183 30.584 16.964C30.5865 20.4656 31.5707 23.1844 33.5246 25.1946C35.4768 27.1979 38.202 28.2107 41.7872 28.2133C43.2609 28.2141 44.5618 28.0293 45.6975 27.6724C47.2206 25.7917 48.3504 23.5796 48.9617 21.1615C48.7352 21.2296 48.5462 21.3352 48.3253 21.5375C48.1043 21.7398 47.2325 22.5584 46.78 22.954C46.3275 23.3497 45.8303 23.7227 45.285 24.0749C44.7397 24.4271 44.165 24.6912 43.5708 24.8603C42.9765 25.0293 42.3252 25.1111 41.4407 25.1115C40.5561 25.112 39.5659 24.8454 38.6737 24.3147C37.7815 23.7841 37.0646 22.9885 36.5551 21.9962C36.0455 21.0039 35.7816 19.9153 35.7314 18.7101C35.7178 18.3072 36.0242 18.067 36.2022 18.067H47.1483C48.0558 18.0679 48.8255 17.9844 49.458 17.8294C49.4716 17.5491 49.4785 17.2689 49.4785 16.9861C49.4785 13.0859 48.1648 9.49481 45.9563 6.62776C44.6324 6.04856 43.1093 5.75556 41.4062 5.75513C39.703 5.75471 38.1944 6.02301 36.8373 6.55281C35.4785 7.08431 34.347 7.84239 33.425 8.83171ZM46.6451 14.9197C46.6681 15.2323 46.3386 15.5057 46.0023 15.5057H36.3997C36.0506 15.5032 35.7024 15.2221 35.7569 14.878C35.9783 13.0509 36.5325 11.6157 37.4788 10.5936C38.4251 9.57147 39.6962 9.03997 41.2163 9.03997C42.7365 9.03997 44.0416 9.55955 45.0096 10.5927C45.9495 11.5927 46.4782 13.0492 46.6451 14.9197Z" fill="url(#paint3_radial_5060_2369)"/>
<path d="M4.70893 45.6083C4.70893 44.8775 4.6008 44.3494 4.3837 44.0241C4.11042 43.6178 3.64131 43.415 2.97469 43.415C2.30806 43.415 1.84236 43.6178 1.57759 44.0241C1.36049 44.3494 1.25237 44.8775 1.25237 45.6083V47.7889H2.97469C3.64131 47.7889 4.11042 47.5904 4.3837 47.1926C4.6008 46.8587 4.70893 46.3306 4.70893 45.6083ZM5.96129 45.6083C5.96129 47.989 4.96604 49.1789 2.97469 49.1789H1.25237V52H0V45.61C0 43.22 0.990995 42.0241 2.97469 42.0241C4.96604 42.0241 5.96129 43.2191 5.96129 45.6083Z" fill="#18397A"/>
<path d="M11.5281 45.608C11.5281 44.8772 11.4208 44.3491 11.2054 44.0237C10.9423 43.6174 10.4792 43.4147 9.81766 43.4147C9.15615 43.4147 8.6896 43.6174 8.41801 44.0237C8.20346 44.3491 8.09534 44.8772 8.09534 45.608C8.09534 46.3303 8.20346 46.8584 8.41801 47.1923C8.6896 47.59 9.15615 47.7885 9.81766 47.7885C10.4792 47.7885 10.9423 47.59 11.2054 47.1923C11.4208 46.8677 11.5281 46.3396 11.5281 45.608ZM12.3232 40.66L11.7571 41.4275L9.75806 40.2938L7.7582 41.4275L7.19204 40.66L9.75806 39.2027L12.3232 40.66ZM12.7923 45.608C12.7923 47.9887 11.8005 49.1786 9.81766 49.1786C7.82631 49.1786 6.83105 47.9887 6.83105 45.608C6.83105 43.2188 7.82631 42.0237 9.81766 42.0237C11.8005 42.0237 12.7923 43.2188 12.7923 45.608Z" fill="#18397A"/>
<path d="M17.006 49.1791C14.8699 49.1791 13.8022 48.3145 13.8022 46.5871V39.2023H15.0546V46.5991C15.0546 46.9679 15.167 47.2439 15.3918 47.4236C15.6889 47.6663 16.227 47.7881 17.006 47.7881V49.1791Z" fill="#18397A"/>
<path d="M21.8285 44.1021C21.6054 43.5723 21.104 43.2094 20.4348 43.2094C19.7656 43.2094 19.2497 43.5723 19.0266 44.1021C18.887 44.4223 18.8598 44.6319 18.8453 45.0646H22.0235C22.0098 44.6319 21.9681 44.4223 21.8285 44.1021ZM18.8453 46.0543C18.8453 47.2672 19.4872 48.0347 20.6434 48.0347C21.4386 48.0347 21.8566 47.8115 22.3581 47.309L23.2639 48.1599C22.5394 48.8856 21.8566 49.2621 20.6162 49.2621C18.8453 49.2621 17.438 48.3277 17.438 45.6361C17.438 43.3491 18.6222 42.0238 20.4348 42.0238C22.33 42.0238 23.4316 43.4181 23.4316 45.4266V46.0543H18.8453Z" fill="#18397A"/>
<path d="M4.70893 45.6083C4.70893 44.8775 4.6008 44.3494 4.3837 44.0241C4.11042 43.6178 3.64131 43.415 2.97469 43.415C2.30806 43.415 1.84236 43.6178 1.57759 44.0241C1.36049 44.3494 1.25237 44.8775 1.25237 45.6083V47.7889H2.97469C3.64131 47.7889 4.11042 47.5904 4.3837 47.1926C4.6008 46.8587 4.70893 46.3306 4.70893 45.6083ZM5.96129 45.6083C5.96129 47.989 4.96604 49.1789 2.97469 49.1789H1.25237V52H0V45.61C0 43.22 0.990995 42.0241 2.97469 42.0241C4.96604 42.0241 5.96129 43.2191 5.96129 45.6083Z" fill="#18397A"/>
<path d="M11.5281 45.608C11.5281 44.8772 11.4208 44.3491 11.2054 44.0237C10.9423 43.6174 10.4792 43.4147 9.81766 43.4147C9.15615 43.4147 8.6896 43.6174 8.41801 44.0237C8.20346 44.3491 8.09534 44.8772 8.09534 45.608C8.09534 46.3303 8.20346 46.8584 8.41801 47.1923C8.6896 47.59 9.15615 47.7885 9.81766 47.7885C10.4792 47.7885 10.9423 47.59 11.2054 47.1923C11.4208 46.8677 11.5281 46.3396 11.5281 45.608ZM12.3232 40.66L11.7571 41.4275L9.75806 40.2938L7.7582 41.4275L7.19204 40.66L9.75806 39.2027L12.3232 40.66ZM12.7923 45.608C12.7923 47.9887 11.8005 49.1786 9.81766 49.1786C7.82631 49.1786 6.83105 47.9887 6.83105 45.608C6.83105 43.2188 7.82631 42.0237 9.81766 42.0237C11.8005 42.0237 12.7923 43.2188 12.7923 45.608Z" fill="#18397A"/>
<path d="M17.006 49.1791C14.8699 49.1791 13.8022 48.3145 13.8022 46.5871V39.2023H15.0546V46.5991C15.0546 46.9679 15.167 47.2439 15.3918 47.4236C15.6889 47.6663 16.227 47.7881 17.006 47.7881V49.1791Z" fill="#18397A"/>
<path d="M21.8285 44.1021C21.6054 43.5723 21.104 43.2094 20.4348 43.2094C19.7656 43.2094 19.2497 43.5723 19.0266 44.1021C18.887 44.4223 18.8598 44.6319 18.8453 45.0646H22.0235C22.0098 44.6319 21.9681 44.4223 21.8285 44.1021ZM18.8453 46.0543C18.8453 47.2672 19.4872 48.0347 20.6434 48.0347C21.4386 48.0347 21.8566 47.8115 22.3581 47.309L23.2639 48.1599C22.5394 48.8856 21.8566 49.2621 20.6162 49.2621C18.8453 49.2621 17.438 48.3277 17.438 45.6361C17.438 43.3491 18.6222 42.0238 20.4348 42.0238C22.33 42.0238 23.4316 43.4181 23.4316 45.4266V46.0543H18.8453Z" fill="#18397A"/>
<path d="M45.4046 49.1791H44.1522V45.6017C44.1522 44.8725 44.0433 44.3462 43.827 44.0225C43.5537 43.617 43.0846 43.4143 42.418 43.4143C41.7514 43.4143 41.2857 43.617 41.0209 44.0225C40.8038 44.3462 40.6957 44.8725 40.6957 45.6017V49.1791H39.4433V45.6017C39.4433 44.8725 39.3352 44.3462 39.1181 44.0225C38.8448 43.617 38.3757 43.4143 37.7082 43.4143C37.0424 43.4143 36.5767 43.617 36.3111 44.0225C36.0949 44.3462 35.9867 44.8725 35.9867 45.6017V49.1791H34.7344V45.6085C34.7344 43.2184 35.7254 42.0242 37.7082 42.0242C38.769 42.0242 39.5548 42.3845 40.0691 43.1043C40.5756 42.3845 41.358 42.0242 42.418 42.0242C44.4085 42.0242 45.4046 43.2184 45.4046 45.6085V49.1791Z" fill="#E31927"/>
<path d="M51.1254 45.6083C51.1254 44.8775 51.0173 44.3494 50.8002 44.0241C50.5278 43.6178 50.0578 43.415 49.3912 43.415C48.7246 43.415 48.2589 43.6178 47.9941 44.0241C47.777 44.3494 47.6689 44.8775 47.6689 45.6083V47.7889H49.3912C50.0578 47.7889 50.5278 47.5904 50.8002 47.1926C51.0173 46.8587 51.1254 46.3306 51.1254 45.6083ZM52.3786 45.6083C52.3786 47.989 51.3825 49.1789 49.3912 49.1789H47.6689V52H46.4165V45.61C46.4165 43.22 47.4083 42.0241 49.3912 42.0241C51.3825 42.0241 52.3786 43.2191 52.3786 45.6083Z" fill="#E31927"/>
<path d="M56.4972 49.1791C54.3611 49.1791 53.2935 48.3145 53.2935 46.5871V39.2023H54.5458V46.5991C54.5458 46.9679 54.6582 47.2439 54.8838 47.4236C55.1801 47.6663 55.7182 47.7881 56.4972 47.7881V49.1791Z" fill="#E31927"/>
<path d="M61.5677 45.608C61.5677 44.8772 61.4596 44.3491 61.2425 44.0237C60.9777 43.6174 60.512 43.4147 59.8454 43.4147C59.1788 43.4147 58.7131 43.6174 58.4483 44.0237C58.2312 44.3491 58.123 44.8772 58.123 45.608C58.123 46.3396 58.2312 46.8677 58.4483 47.1923C58.7131 47.59 59.1788 47.7885 59.8454 47.7885C60.512 47.7885 60.9777 47.59 61.2425 47.1923C61.4596 46.8677 61.5677 46.3396 61.5677 45.608ZM62.8201 45.608C62.8201 47.9887 61.8282 49.1786 59.8454 49.1786C57.854 49.1786 56.8579 47.9887 56.8579 45.608C56.8579 43.2188 57.854 42.0237 59.8454 42.0237C61.8282 42.0237 62.8201 43.2188 62.8201 45.608Z" fill="#E31927"/>
<path d="M63.7476 42.0242H64.9999V49.1791H63.7476V42.0242ZM64.9999 40.5933H63.7476V39.2023H64.9999V40.5933Z" fill="#E31927"/>
<path d="M32.1283 44.1021C31.9052 43.5723 31.4038 43.2094 30.7346 43.2094C30.0654 43.2094 29.5495 43.5723 29.3264 44.1021C29.1868 44.4223 29.1596 44.6319 29.1451 45.0646H32.3233C32.3096 44.6319 32.2679 44.4223 32.1283 44.1021ZM29.1451 46.0543C29.1451 47.2672 29.7862 48.0347 30.9432 48.0347C31.7384 48.0347 32.1564 47.8115 32.6578 47.309L33.5645 48.1599C32.8392 48.8856 32.1564 49.2621 30.9159 49.2621C29.1451 49.2621 27.7378 48.3277 27.7378 45.6361C27.7378 43.3491 28.922 42.0238 30.7346 42.0238C32.6297 42.0238 33.7314 43.4181 33.7314 45.4266V46.0543H29.1451Z" fill="#E31927"/>
<path d="M45.4046 49.1791H44.1522V45.6017C44.1522 44.8725 44.0433 44.3462 43.827 44.0225C43.5537 43.617 43.0846 43.4143 42.418 43.4143C41.7514 43.4143 41.2857 43.617 41.0209 44.0225C40.8038 44.3462 40.6957 44.8725 40.6957 45.6017V49.1791H39.4433V45.6017C39.4433 44.8725 39.3352 44.3462 39.1181 44.0225C38.8448 43.617 38.3757 43.4143 37.7082 43.4143C37.0424 43.4143 36.5767 43.617 36.3111 44.0225C36.0949 44.3462 35.9867 44.8725 35.9867 45.6017V49.1791H34.7344V45.6085C34.7344 43.2184 35.7254 42.0242 37.7082 42.0242C38.769 42.0242 39.5548 42.3845 40.0691 43.1043C40.5756 42.3845 41.358 42.0242 42.418 42.0242C44.4085 42.0242 45.4046 43.2184 45.4046 45.6085V49.1791Z" fill="#E31927"/>
<path d="M51.1254 45.6083C51.1254 44.8775 51.0173 44.3494 50.8002 44.0241C50.5278 43.6178 50.0578 43.415 49.3912 43.415C48.7246 43.415 48.2589 43.6178 47.9941 44.0241C47.777 44.3494 47.6689 44.8775 47.6689 45.6083V47.7889H49.3912C50.0578 47.7889 50.5278 47.5904 50.8002 47.1926C51.0173 46.8587 51.1254 46.3306 51.1254 45.6083ZM52.3786 45.6083C52.3786 47.989 51.3825 49.1789 49.3912 49.1789H47.6689V52H46.4165V45.61C46.4165 43.22 47.4083 42.0241 49.3912 42.0241C51.3825 42.0241 52.3786 43.2191 52.3786 45.6083Z" fill="#E31927"/>
<path d="M56.4972 49.1791C54.3611 49.1791 53.2935 48.3145 53.2935 46.5871V39.2023H54.5458V46.5991C54.5458 46.9679 54.6582 47.2439 54.8838 47.4236C55.1801 47.6663 55.7182 47.7881 56.4972 47.7881V49.1791Z" fill="#E31927"/>
<path d="M61.5677 45.608C61.5677 44.8772 61.4596 44.3491 61.2425 44.0237C60.9777 43.6174 60.512 43.4147 59.8454 43.4147C59.1788 43.4147 58.7131 43.6174 58.4483 44.0237C58.2312 44.3491 58.123 44.8772 58.123 45.608C58.123 46.3396 58.2312 46.8677 58.4483 47.1923C58.7131 47.59 59.1788 47.7885 59.8454 47.7885C60.512 47.7885 60.9777 47.59 61.2425 47.1923C61.4596 46.8677 61.5677 46.3396 61.5677 45.608ZM62.8201 45.608C62.8201 47.9887 61.8282 49.1786 59.8454 49.1786C57.854 49.1786 56.8579 47.9887 56.8579 45.608C56.8579 43.2188 57.854 42.0237 59.8454 42.0237C61.8282 42.0237 62.8201 43.2188 62.8201 45.608Z" fill="#E31927"/>
<path d="M63.7476 42.0242H64.9999V49.1791H63.7476V42.0242ZM64.9999 40.5933H63.7476V39.2023H64.9999V40.5933Z" fill="#E31927"/>
<path d="M32.1283 44.1021C31.9052 43.5723 31.4038 43.2094 30.7346 43.2094C30.0654 43.2094 29.5495 43.5723 29.3264 44.1021C29.1868 44.4223 29.1596 44.6319 29.1451 45.0646H32.3233C32.3096 44.6319 32.2679 44.4223 32.1283 44.1021ZM29.1451 46.0543C29.1451 47.2672 29.7862 48.0347 30.9432 48.0347C31.7384 48.0347 32.1564 47.8115 32.6578 47.309L33.5645 48.1599C32.8392 48.8856 32.1564 49.2621 30.9159 49.2621C29.1451 49.2621 27.7378 48.3277 27.7378 45.6361C27.7378 43.3491 28.922 42.0238 30.7346 42.0238C32.6297 42.0238 33.7314 43.4181 33.7314 45.4266V46.0543H29.1451Z" fill="#E31927"/>
</g>
<defs>
<radialGradient id="paint0_radial_5060_2369" cx="0" cy="0" r="1" gradientUnits="userSpaceOnUse" gradientTransform="translate(37.3187 6.48749) scale(39.7435 39.762)">
<stop stop-color="#E65D1B"/>
<stop offset="0.0472274" stop-color="#E65D1B"/>
<stop offset="0.350006" stop-color="#ED1C24"/>
<stop offset="1" stop-color="#A61217"/>
</radialGradient>
<linearGradient id="paint1_linear_5060_2369" x1="32.5003" y1="0.000124012" x2="32.5003" y2="33.972" gradientUnits="userSpaceOnUse">
<stop stop-color="#65CDEB"/>
<stop offset="0.0548619" stop-color="#65CDEB"/>
<stop offset="0.406586" stop-color="#164789"/>
<stop offset="1" stop-color="#06172F"/>
</linearGradient>
<linearGradient id="paint2_linear_5060_2369" x1="33.7371" y1="1.22705" x2="31.4368" y2="23.8536" gradientUnits="userSpaceOnUse">
<stop stop-color="#99DEF9"/>
<stop offset="1" stop-color="#103568"/>
</linearGradient>
<radialGradient id="paint3_radial_5060_2369" cx="0" cy="0" r="1" gradientUnits="userSpaceOnUse" gradientTransform="translate(37.9514 8.21346) scale(22.7916 22.8022)">
<stop stop-color="white"/>
<stop offset="0.252747" stop-color="white"/>
<stop offset="0.457171" stop-color="white"/>
<stop offset="1" stop-color="#CEDDE3"/>
</radialGradient>
<clipPath id="clip0_5060_2369">
<rect width="65" height="52" fill="white"/>
</clipPath>
</defs>
</svg>

<svg width="65" height="52" fill="none" xmlns="http://www.w3.org/2000/svg"><g clip-path="url(#a)"><path d="M36.84 6.55a9.12 9.12 0 0 0-3.41 2.28 9.93 9.93 0 0 0-2.12 3.57c-.48 1.4-.73 2.92-.73 4.56 0 3.5 1 6.22 2.94 8.23 1.96 2 4.68 3.02 8.27 3.02 1.53 0 2.87-.2 4.04-.58 2.13-.75 4.53-2.88 4.94-4.88.26-1.31-.54-1.6-.97-1.66l-.26-.01c-.5 0-.89.16-1.14.38-.3.28-1.17 1.1-1.62 1.5-.45.39-.95.76-1.49 1.11a6.39 6.39 0 0 1-3.67 1.04 5.65 5.65 0 0 1-2.94-.8 5.66 5.66 0 0 1-2.14-2.35 7.71 7.71 0 0 1-.8-3.25c-.02-.4.28-.64.64-.64h10.77c1.45 0 2.55-.21 3.3-.6.66-.34 1.04-1.1 1.04-2.48a9.2 9.2 0 0 0-4.58-7.88 10.7 10.7 0 0 0-5.54-1.36c-1.67 0-3.18.27-4.53.8ZM45 10.6c.94 1 1.47 2.46 1.64 4.33.02.31-.31.59-.65.59h-9.6c-.35 0-.7-.29-.64-.63.22-1.83.77-3.26 1.7-4.26a4.88 4.88 0 0 1 3.73-1.58c1.55 0 2.85.52 3.82 1.55Z" fill="url(#b)"/><path d="M15.52 16.99a16.98 16.98 0 1 0 33.96 0 16.98 16.98 0 0 0-33.96 0Z" fill="url(#c)"/><path d="M16.79 15.39c-.26 2.47.08 4.88.9 7.07 3-6.98 10.56-7.15 16.35-5.1 6.95 1.43 14.9 1.1 13.76-4.09A15.67 15.67 0 0 0 32.5 1.18c-8 0-14.88 6.08-15.7 14.2Z" fill="url(#d)"/><path d="M33.42 8.83a9.95 9.95 0 0 0-2.1 3.57 13.8 13.8 0 0 0-.74 4.56c0 3.5 1 6.22 2.94 8.23 1.96 2 4.68 3.02 8.27 3.02a13 13 0 0 0 3.9-.54 16.94 16.94 0 0 0 3.27-6.5c-.22.06-.41.17-.63.37-.23.2-1.1 1.02-1.55 1.41-.45.4-.95.77-1.5 1.12a6.38 6.38 0 0 1-3.84 1.04A5.52 5.52 0 0 1 36.56 22c-.51-1-.78-2.08-.83-3.29-.01-.4.3-.64.47-.64h10.95c.9 0 1.68-.09 2.3-.24l.03-.84c0-3.9-1.32-7.5-3.52-10.36a11.28 11.28 0 0 0-4.55-.87c-1.7 0-3.22.26-4.57.8a9.12 9.12 0 0 0-3.42 2.27Zm13.23 6.09c.02.31-.31.59-.65.59h-9.6c-.35 0-.7-.29-.64-.63.22-1.83.77-3.26 1.72-4.29a4.9 4.9 0 0 1 3.74-1.55c1.52 0 2.82.52 3.79 1.55.94 1 1.47 2.46 1.64 4.33Z" fill="url(#e)"/><path d="M4.7 45.6c0-.72-.1-1.25-.32-1.58-.27-.4-.74-.6-1.4-.6-.67 0-1.14.2-1.4.6-.22.33-.33.86-.33 1.59v2.18h1.72c.67 0 1.14-.2 1.41-.6.22-.33.33-.86.33-1.58Zm1.26 0c0 2.39-1 3.58-2.99 3.58H1.25V52H0v-6.39c0-2.39 1-3.59 2.97-3.59 2 0 3 1.2 3 3.59ZM11.53 45.6c0-.72-.1-1.25-.32-1.58-.27-.4-.73-.6-1.4-.6-.65 0-1.12.2-1.4.6-.2.33-.31.86-.31 1.59 0 .72.1 1.25.32 1.58.27.4.74.6 1.4.6.66 0 1.12-.2 1.39-.6.21-.32.32-.85.32-1.58Zm.8-4.94-.57.77-2-1.14-2 1.14-.57-.77 2.57-1.46 2.56 1.46Zm.46 4.95c0 2.38-.99 3.57-2.97 3.57-2 0-2.99-1.2-2.99-3.57 0-2.4 1-3.59 2.99-3.59 1.98 0 2.97 1.2 2.97 3.59ZM17 49.18c-2.13 0-3.2-.87-3.2-2.6V39.2h1.25v7.4c0 .37.12.64.34.82.3.25.84.37 1.62.37v1.39ZM21.83 44.1c-.22-.53-.73-.9-1.4-.9-.66 0-1.18.37-1.4.9-.14.32-.17.53-.18.96h3.17a2.22 2.22 0 0 0-.2-.96Zm-2.98 1.95c0 1.22.64 1.98 1.8 1.98.79 0 1.2-.22 1.7-.72l.91.85c-.72.73-1.4 1.1-2.64 1.1-1.77 0-3.18-.93-3.18-3.62 0-2.3 1.18-3.62 3-3.62 1.89 0 3 1.4 3 3.4v.63h-4.6Z" fill="#18397A"/><path d="M4.7 45.6c0-.72-.1-1.25-.32-1.58-.27-.4-.74-.6-1.4-.6-.67 0-1.14.2-1.4.6-.22.33-.33.86-.33 1.59v2.18h1.72c.67 0 1.14-.2 1.41-.6.22-.33.33-.86.33-1.58Zm1.26 0c0 2.39-1 3.58-2.99 3.58H1.25V52H0v-6.39c0-2.39 1-3.59 2.97-3.59 2 0 3 1.2 3 3.59ZM11.53 45.6c0-.72-.1-1.25-.32-1.58-.27-.4-.73-.6-1.4-.6-.65 0-1.12.2-1.4.6-.2.33-.31.86-.31 1.59 0 .72.1 1.25.32 1.58.27.4.74.6 1.4.6.66 0 1.12-.2 1.39-.6.21-.32.32-.85.32-1.58Zm.8-4.94-.57.77-2-1.14-2 1.14-.57-.77 2.57-1.46 2.56 1.46Zm.46 4.95c0 2.38-.99 3.57-2.97 3.57-2 0-2.99-1.2-2.99-3.57 0-2.4 1-3.59 2.99-3.59 1.98 0 2.97 1.2 2.97 3.59ZM17 49.18c-2.13 0-3.2-.87-3.2-2.6V39.2h1.25v7.4c0 .37.12.64.34.82.3.25.84.37 1.62.37v1.39ZM21.83 44.1c-.22-.53-.73-.9-1.4-.9-.66 0-1.18.37-1.4.9-.14.32-.17.53-.18.96h3.17a2.22 2.22 0 0 0-.2-.96Zm-2.98 1.95c0 1.22.64 1.98 1.8 1.98.79 0 1.2-.22 1.7-.72l.91.85c-.72.73-1.4 1.1-2.64 1.1-1.77 0-3.18-.93-3.18-3.62 0-2.3 1.18-3.62 3-3.62 1.89 0 3 1.4 3 3.4v.63h-4.6Z" fill="#18397A"/><path d="M45.4 49.18h-1.25V45.6c0-.73-.1-1.25-.32-1.58-.28-.4-.75-.6-1.41-.6-.67 0-1.13.2-1.4.6-.22.33-.32.85-.32 1.58v3.58h-1.26V45.6c0-.73-.1-1.25-.32-1.58-.28-.4-.74-.6-1.41-.6-.67 0-1.13.2-1.4.6-.22.33-.32.85-.32 1.58v3.58h-1.26V45.6c0-2.4 1-3.59 2.98-3.59 1.06 0 1.84.36 2.36 1.08.5-.72 1.29-1.08 2.35-1.08 1.99 0 2.98 1.2 2.98 3.59v3.57ZM51.13 45.6c0-.72-.11-1.25-.33-1.58-.27-.4-.74-.6-1.4-.6-.68 0-1.14.2-1.4.6-.22.33-.33.86-.33 1.59v2.18h1.72c.67 0 1.14-.2 1.41-.6.22-.33.33-.86.33-1.58Zm1.25 0c0 2.39-1 3.58-2.99 3.58h-1.72V52h-1.25v-6.39c0-2.39.99-3.59 2.97-3.59 2 0 2.99 1.2 2.99 3.59ZM56.5 49.18c-2.14 0-3.2-.87-3.2-2.6V39.2h1.25v7.4c0 .37.1.64.33.82.3.25.84.37 1.62.37v1.39ZM61.57 45.6c0-.72-.11-1.25-.33-1.58-.26-.4-.73-.6-1.4-.6-.66 0-1.13.2-1.4.6-.2.33-.32.86-.32 1.59 0 .73.11 1.26.33 1.58.26.4.73.6 1.4.6.66 0 1.13-.2 1.4-.6.21-.32.32-.85.32-1.58Zm1.25 0c0 2.39-1 3.58-2.97 3.58-2 0-3-1.2-3-3.57 0-2.4 1-3.59 3-3.59 1.98 0 2.97 1.2 2.97 3.59ZM63.75 42.02H65v7.16h-1.25v-7.16ZM65 40.6h-1.25V39.2H65v1.4ZM32.13 44.1c-.22-.53-.73-.9-1.4-.9-.66 0-1.18.37-1.4.9-.14.32-.17.53-.18.96h3.17a2.22 2.22 0 0 0-.2-.96Zm-2.98 1.95c0 1.22.64 1.98 1.8 1.98.79 0 1.2-.22 1.7-.72l.91.85c-.72.73-1.4 1.1-2.64 1.1-1.77 0-3.18-.93-3.18-3.62 0-2.3 1.18-3.62 3-3.62 1.89 0 3 1.4 3 3.4v.63h-4.6Z" fill="#E31927"/><path d="M45.4 49.18h-1.25V45.6c0-.73-.1-1.25-.32-1.58-.28-.4-.75-.6-1.41-.6-.67 0-1.13.2-1.4.6-.22.33-.32.85-.32 1.58v3.58h-1.26V45.6c0-.73-.1-1.25-.32-1.58-.28-.4-.74-.6-1.41-.6-.67 0-1.13.2-1.4.6-.22.33-.32.85-.32 1.58v3.58h-1.26V45.6c0-2.4 1-3.59 2.98-3.59 1.06 0 1.84.36 2.36 1.08.5-.72 1.29-1.08 2.35-1.08 1.99 0 2.98 1.2 2.98 3.59v3.57ZM51.13 45.6c0-.72-.11-1.25-.33-1.58-.27-.4-.74-.6-1.4-.6-.68 0-1.14.2-1.4.6-.22.33-.33.86-.33 1.59v2.18h1.72c.67 0 1.14-.2 1.41-.6.22-.33.33-.86.33-1.58Zm1.25 0c0 2.39-1 3.58-2.99 3.58h-1.72V52h-1.25v-6.39c0-2.39.99-3.59 2.97-3.59 2 0 2.99 1.2 2.99 3.59ZM56.5 49.18c-2.14 0-3.2-.87-3.2-2.6V39.2h1.25v7.4c0 .37.1.64.33.82.3.25.84.37 1.62.37v1.39ZM61.57 45.6c0-.72-.11-1.25-.33-1.58-.26-.4-.73-.6-1.4-.6-.66 0-1.13.2-1.4.6-.2.33-.32.86-.32 1.59 0 .73.11 1.26.33 1.58.26.4.73.6 1.4.6.66 0 1.13-.2 1.4-.6.21-.32.32-.85.32-1.58Zm1.25 0c0 2.39-1 3.58-2.97 3.58-2 0-3-1.2-3-3.57 0-2.4 1-3.59 3-3.59 1.98 0 2.97 1.2 2.97 3.59ZM63.75 42.02H65v7.16h-1.25v-7.16ZM65 40.6h-1.25V39.2H65v1.4ZM32.13 44.1c-.22-.53-.73-.9-1.4-.9-.66 0-1.18.37-1.4.9-.14.32-.17.53-.18.96h3.17a2.22 2.22 0 0 0-.2-.96Zm-2.98 1.95c0 1.22.64 1.98 1.8 1.98.79 0 1.2-.22 1.7-.72l.91.85c-.72.73-1.4 1.1-2.64 1.1-1.77 0-3.18-.93-3.18-3.62 0-2.3 1.18-3.62 3-3.62 1.89 0 3 1.4 3 3.4v.63h-4.6Z" fill="#E31927"/></g><defs><radialGradient id="b" cx="0" cy="0" r="1" gradientUnits="userSpaceOnUse" gradientTransform="matrix(39.7435 0 0 39.762 37.32 6.49)"><stop stop-color="#E65D1B"/><stop offset=".05" stop-color="#E65D1B"/><stop offset=".35" stop-color="#ED1C24"/><stop offset="1" stop-color="#A61217"/></radialGradient><radialGradient id="e" cx="0" cy="0" r="1" gradientUnits="userSpaceOnUse" gradientTransform="matrix(22.7916 0 0 22.8022 37.95 8.21)"><stop stop-color="#fff"/><stop offset=".25" stop-color="#fff"/><stop offset=".46" stop-color="#fff"/><stop offset="1" stop-color="#CEDDE3"/></radialGradient><linearGradient id="c" x1="32.5" y1="0" x2="32.5" y2="33.97" gradientUnits="userSpaceOnUse"><stop stop-color="#65CDEB"/><stop offset=".05" stop-color="#65CDEB"/><stop offset=".41" stop-color="#164789"/><stop offset="1" stop-color="#06172F"/></linearGradient><linearGradient id="d" x1="33.74" y1="1.23" x2="31.44" y2="23.85" gradientUnits="userSpaceOnUse"><stop stop-color="#99DEF9"/><stop offset="1" stop-color="#103568"/></linearGradient><clipPath id="a"><path fill="#fff" d="M0 0h65v52H0z"/></clipPath></defs></svg>
